src/images/logo-metro.svg

<svg width="160" height="68" viewBox="0 0 160 68" fill="none" xmlns="http://www.w3.org/2000/svg">
<g clip-path="url(#clip0_2403_13108)">
<path fill-rule="evenodd" clip-rule="evenodd" d="M82.3614 23.5927C83.9911 23.7819 85.5506 24.1549 86.8835 24.6739L89.22 20.5706C86.5651 19.1921 83.3273 18.4082 80.0464 18.4082C76.8302 18.4082 73.5385 19.1975 70.9375 20.5436L73.2471 24.6577C74.553 24.1657 76.0747 23.7873 77.6505 23.6035V38.454H82.3722V23.5927H82.3614Z" fill="#FCFCFC"/>
<path fill-rule="evenodd" clip-rule="evenodd" d="M50.5124 31.0361C51.4352 32.7066 53.1943 33.8311 55.2072 33.8311C56.4591 33.8311 57.7434 33.3499 58.6877 32.5498L62.287 36.1719C60.393 37.8802 57.8567 38.8966 55.3097 38.8966C49.5735 38.8966 44.9219 34.2203 44.9219 28.4898C44.9219 22.7594 49.5789 18.0723 55.3151 18.0723C57.9161 18.0723 60.5279 19.0886 62.422 20.878L58.7525 24.4028C57.792 23.5757 56.513 23.0945 55.2072 23.0945C53.0217 23.0945 51.1384 24.419 50.3127 26.3166L57.22 26.3058V31.0361H50.5124Z" fill="#FCFCFC"/>
<path fill-rule="evenodd" clip-rule="evenodd" d="M32.268 25.0837V38.4854H36.9897V23.8565L36.925 23.7483C36.6875 20.8236 34.7395 18.5369 32.349 18.5369C30.7355 18.5369 29.2137 19.6073 28.3989 21.3156C27.5733 19.6181 26.0515 18.5369 24.438 18.5369C22.0529 18.5369 20.0778 20.8236 19.835 23.8565L19.8242 38.4854H24.546L24.519 25.0837C24.519 24.4025 24.9075 23.8835 25.3446 23.9213C25.7709 23.9592 26.1702 24.5647 26.1864 25.2188V38.4854H30.5898L30.6006 25.2188C30.6114 24.5647 30.9999 23.9646 31.4424 23.9213C31.8687 23.8835 32.268 24.4025 32.268 25.0837Z" fill="#FCFCFC"/>
<path fill-rule="evenodd" clip-rule="evenodd" d="M131.657 18.0762C137.296 18.0762 141.899 22.7524 141.899 28.4991C141.899 34.2296 137.296 38.9059 131.657 38.9059C126.001 38.9059 121.398 34.2296 121.398 28.4991C121.404 22.7524 126.001 18.0762 131.657 18.0762ZM131.657 23.0984C128.683 23.0984 126.271 25.515 126.271 28.4937C126.271 31.4617 128.683 33.8674 131.657 33.8674C134.619 33.8674 137.021 31.4617 137.021 28.4937C137.021 25.515 134.619 23.0984 131.657 23.0984Z" fill="#FCFCFC"/>
<path fill-rule="evenodd" clip-rule="evenodd" d="M98.75 18.5645H106.834C110.579 18.6455 113.557 21.5594 113.557 25.0193C113.557 27.717 111.728 30.1119 109.105 31.058L114.545 38.4859H108.663L103.752 31.804V38.4859H98.75V18.5645ZM106.672 23.5056H103.752L103.742 27.3656H106.677C107.719 27.3548 108.598 26.4844 108.598 25.4302C108.593 24.376 107.708 23.5056 106.672 23.5056Z" fill="#FCFCFC"/>
<path fill-rule="evenodd" clip-rule="evenodd" d="M28.3394 13.4277C36.5309 13.4277 43.2115 20.1205 43.2115 28.327C43.2115 36.5334 36.5309 43.2262 28.3394 43.2262C20.1532 43.2262 13.4727 36.5334 13.4727 28.327C13.4727 20.1259 20.1532 13.4277 28.3394 13.4277ZM28.3394 14.4873C20.736 14.4873 14.5357 20.7152 14.5357 28.327C14.5357 35.9441 20.736 42.1666 28.3394 42.1666C35.9535 42.1666 42.1538 35.9387 42.1538 28.327C42.1592 20.7098 35.9589 14.4873 28.3394 14.4873Z" fill="#FCFCFC"/>
<path fill-rule="evenodd" clip-rule="evenodd" d="M54.3755 13.4277C62.5617 13.4277 69.2422 20.1259 69.2422 28.327C69.2422 36.5334 62.5617 43.2262 54.3701 43.2262C46.1786 43.2262 39.498 36.5334 39.498 28.327C39.5034 20.1259 46.184 13.4277 54.3755 13.4277ZM54.3755 14.4873C46.7722 14.4873 40.5719 20.7152 40.5719 28.327C40.5719 35.9441 46.7722 42.1666 54.3755 42.1666C61.9897 42.1666 68.19 35.9387 68.19 28.327C68.19 20.7098 61.9897 14.4873 54.3755 14.4873Z" fill="#FCFCFC"/>
<path fill-rule="evenodd" clip-rule="evenodd" d="M80.1592 13.4277C88.3507 13.4277 95.0313 20.1205 95.0313 28.327C95.0313 36.5334 88.3507 43.2262 80.1592 43.2262C71.9677 43.2262 65.2871 36.5334 65.2871 28.327C65.2925 20.1259 71.9731 13.4277 80.1592 13.4277ZM80.1592 14.4873C72.5559 14.4873 66.3556 20.7152 66.3556 28.327C66.3556 35.9441 72.5559 42.1666 80.1592 42.1666C87.7733 42.1666 93.9736 35.9387 93.9736 28.327C93.979 20.7098 87.7787 14.4873 80.1592 14.4873Z" fill="#FCFCFC"/>
<path fill-rule="evenodd" clip-rule="evenodd" d="M105.868 13.4277C114.06 13.4277 120.74 20.1205 120.74 28.327C120.74 36.5334 114.06 43.2262 105.868 43.2262C97.6767 43.2262 90.9961 36.5334 90.9961 28.327C91.0015 20.1259 97.6821 13.4277 105.868 13.4277ZM105.868 14.4873C98.2649 14.4873 92.0646 20.7152 92.0646 28.327C92.0646 35.9441 98.2649 42.1666 105.868 42.1666C113.482 42.1666 119.683 35.9387 119.683 28.327C119.688 20.7098 113.488 14.4873 105.868 14.4873Z" fill="#FCFCFC"/>
<path fill-rule="evenodd" clip-rule="evenodd" d="M131.737 13.4277C139.929 13.4277 146.609 20.1205 146.609 28.327C146.609 36.5334 139.929 43.2262 131.737 43.2262C123.546 43.2262 116.865 36.5334 116.865 28.327C116.871 20.1259 123.551 13.4277 131.737 13.4277ZM131.737 14.4873C124.134 14.4873 117.934 20.7152 117.934 28.327C117.934 35.9441 124.134 42.1666 131.737 42.1666C139.351 42.1666 145.552 35.9387 145.552 28.327C145.557 20.7098 139.357 14.4873 131.737 14.4873Z" fill="#FCFCFC"/>
<path fill-rule="evenodd" clip-rule="evenodd" d="M28.0537 51.8396C28.0537 52.6397 27.6598 53.2722 26.872 53.748C26.1327 54.1967 25.2099 54.4183 24.1145 54.4183C22.8625 54.4183 21.8588 54.1156 21.1088 53.5047C20.3587 52.8938 19.9863 52.1099 19.9863 51.1422C19.9863 50.1583 20.3641 49.369 21.1141 48.7798C21.8696 48.1905 22.8841 47.8932 24.1684 47.8932C25.2639 47.8932 26.1489 48.104 26.8126 48.5311C27.4763 48.9582 27.8811 49.5799 28.0214 50.3962H25.5175C25.4366 50.0772 25.3124 49.8502 25.1398 49.7096C24.9347 49.5366 24.6217 49.4447 24.2062 49.4447C23.6342 49.4447 23.2133 49.6285 22.9381 49.9961C22.7168 50.2989 22.6035 50.6827 22.6035 51.153C22.6035 51.618 22.7168 52.0018 22.9381 52.2991C23.2187 52.6776 23.645 52.8668 24.2062 52.8668C24.6001 52.8668 24.9131 52.7749 25.1398 52.5857C25.3718 52.3964 25.5121 52.1478 25.5715 51.8396H28.0537ZM39.197 54.2453H36.6068L36.3046 53.429H33.7144L33.4014 54.2453H30.8544L33.7036 48.0554H36.3424L39.197 54.2453ZM35.8406 52.1315L35.0149 49.9853L34.1947 52.1315H35.8406ZM49.3096 52.3099C49.3096 53.0127 48.9211 53.5533 48.144 53.9318C47.4749 54.2561 46.6547 54.4129 45.6725 54.4129C44.658 54.4129 43.854 54.2561 43.2712 53.948C42.6237 53.6074 42.2135 53.0668 42.0355 52.3262H44.5933C44.658 52.5424 44.793 52.6992 44.998 52.7911C45.2031 52.8884 45.4621 52.9371 45.7805 52.9371C46.1312 52.9371 46.3795 52.8992 46.5359 52.8181C46.6924 52.737 46.768 52.6289 46.768 52.4938C46.768 52.2721 46.3741 52.0829 45.5916 51.9261C44.4584 51.6937 43.7245 51.5098 43.3899 51.3747C42.5967 51.0449 42.1974 50.5638 42.1974 49.9313C42.1974 49.2555 42.5589 48.7365 43.2874 48.3689C43.9188 48.05 44.7012 47.8932 45.6456 47.8932C46.5737 47.8932 47.3238 48.0391 47.9012 48.3365C48.5542 48.6716 48.9373 49.169 49.056 49.8394H46.5845C46.5521 49.6339 46.4388 49.4934 46.2284 49.4123C46.0233 49.3312 45.7697 49.2879 45.4729 49.2879C45.257 49.2879 45.1005 49.3096 44.9926 49.3474C44.8145 49.4177 44.7282 49.5366 44.7282 49.715C44.7282 49.861 44.8307 49.9745 45.0304 50.0556C45.1545 50.1043 45.3434 50.1475 45.5862 50.1854L47.1349 50.4989C47.7825 50.6449 48.2897 50.8557 48.6567 51.126C49.0938 51.4396 49.3096 51.8342 49.3096 52.3099ZM60.5986 54.2453H57.9868V51.8504H55.5855V54.2453H52.9845V48.0554H55.5855V50.1583H57.9868V48.0554H60.5986V54.2453ZM80.214 54.2453H77.435L76.755 53.7101C75.9078 54.1805 74.9473 54.4129 73.8626 54.4129C73.0856 54.4129 72.4488 54.2507 71.9578 53.9318C71.4397 53.5966 71.1807 53.1371 71.1807 52.5478C71.1807 51.7693 71.7635 51.1422 72.9291 50.6827C72.438 50.2989 72.1952 49.8988 72.1952 49.4772C72.1952 48.9582 72.4758 48.5527 73.0424 48.2608C73.5335 48.0067 74.1378 47.877 74.8555 47.877C75.6272 47.877 76.2802 48.0175 76.8144 48.2932C77.4242 48.6122 77.7264 49.0555 77.7264 49.6177C77.7264 50.2773 77.2785 50.8071 76.3881 51.1963L77.0626 51.7585C77.2785 51.6288 77.4727 51.445 77.64 51.2071H79.7661C79.3776 51.8288 78.9081 52.3532 78.3469 52.7803L80.214 54.2453ZM75.8161 49.542C75.8161 49.3798 75.7297 49.2447 75.5679 49.1366C75.4006 49.0284 75.2063 48.9744 74.9851 48.9744C74.78 48.9744 74.6019 49.0176 74.4562 49.1095C74.3105 49.2014 74.2404 49.3204 74.2404 49.4718C74.2404 49.7421 74.4724 49.9907 74.9311 50.2178C75.5193 50.0394 75.8161 49.8123 75.8161 49.542ZM75.4491 52.683L74.2835 51.7477C73.7277 51.964 73.4471 52.2235 73.4471 52.537C73.4471 52.6884 73.5281 52.8127 73.69 52.9046C73.8518 52.9965 74.0407 53.0398 74.2458 53.0398C74.6883 53.0398 75.0876 52.9208 75.4491 52.683ZM97.9893 51.8396C97.9893 52.6397 97.5954 53.2722 96.813 53.748C96.0737 54.1967 95.1509 54.4183 94.0555 54.4183C92.8035 54.4183 91.7998 54.1156 91.0497 53.5047C90.2997 52.8938 89.9273 52.1099 89.9273 51.1422C89.9273 50.1583 90.305 49.369 91.0551 48.7798C91.8106 48.1905 92.8251 47.8932 94.1094 47.8932C95.2049 47.8932 96.0899 48.104 96.7536 48.5311C97.4173 48.9582 97.822 49.5799 97.9623 50.3962H95.4585C95.3775 50.0772 95.2534 49.8502 95.0807 49.7096C94.8757 49.5366 94.5627 49.4447 94.1472 49.4447C93.5752 49.4447 93.1543 49.6285 92.8791 49.9961C92.6578 50.2989 92.5445 50.6827 92.5445 51.153C92.5445 51.618 92.6578 52.0018 92.8791 52.2991C93.1597 52.6776 93.586 52.8668 94.1472 52.8668C94.5411 52.8668 94.8541 52.7749 95.0807 52.5857C95.3128 52.3964 95.4531 52.1478 95.5125 51.8396H97.9893ZM109.133 54.2453H106.542L106.24 53.429H103.65L103.337 54.2453H100.79L103.639 48.0554H106.278L109.133 54.2453ZM105.776 52.1315L104.951 49.9853L104.125 52.1315H105.776ZM119.92 54.2453H117.308C117.254 54.121 117.216 54.0075 117.189 53.9047C117.162 53.802 117.151 53.6993 117.151 53.5966V52.9749C117.151 52.6667 117.071 52.4505 116.903 52.3154C116.736 52.1802 116.45 52.1153 116.04 52.1153H114.928V54.2399H112.381V48.0554H116.25C117.119 48.0554 117.788 48.1202 118.263 48.25C118.997 48.45 119.434 48.8122 119.574 49.3366C119.591 49.4069 119.601 49.4934 119.612 49.5961C119.623 49.6988 119.628 49.7907 119.628 49.861C119.628 49.9799 119.623 50.088 119.607 50.1854C119.591 50.2232 119.58 50.2664 119.574 50.3043C119.515 50.5476 119.369 50.7638 119.132 50.9476C118.927 51.1098 118.652 51.2504 118.317 51.3693C118.77 51.4396 119.11 51.5963 119.342 51.8504C119.547 52.0829 119.655 52.3748 119.655 52.7316L119.677 53.6074C119.693 53.7588 119.709 53.8561 119.725 53.8993C119.742 53.9426 119.806 53.975 119.92 54.0075V54.2453ZM117.216 50.1313C117.216 49.7961 116.99 49.6015 116.536 49.5582H116.045H114.923V50.7206H116.126C116.439 50.7206 116.682 50.6881 116.86 50.6178C117.103 50.5259 117.216 50.3638 117.216 50.1313ZM131.009 54.2453H128.397C128.343 54.121 128.306 54.0075 128.279 53.9047C128.252 53.802 128.241 53.6993 128.241 53.5966V52.9749C128.241 52.6667 128.16 52.4505 127.993 52.3154C127.825 52.1802 127.539 52.1153 127.129 52.1153H126.018V54.2399H123.47V48.0554H127.34C128.208 48.0554 128.878 48.1202 129.352 48.25C130.086 48.45 130.523 48.8122 130.664 49.3366C130.68 49.4069 130.691 49.4934 130.701 49.5961C130.712 49.6988 130.718 49.7907 130.718 49.861C130.718 49.9799 130.712 50.088 130.696 50.1854C130.68 50.2232 130.669 50.2664 130.664 50.3043C130.604 50.5476 130.459 50.7638 130.221 50.9476C130.016 51.1098 129.741 51.2504 129.406 51.3693C129.86 51.4396 130.2 51.5963 130.432 51.8504C130.637 52.0829 130.745 52.3748 130.745 52.7316L130.766 53.6074C130.782 53.7588 130.799 53.8561 130.815 53.8993C130.831 53.9426 130.896 53.975 131.009 54.0075V54.2453ZM128.306 50.1313C128.306 49.7961 128.079 49.6015 127.626 49.5582H127.135H126.012V50.7206H127.215C127.528 50.7206 127.771 50.6881 127.949 50.6178C128.187 50.5259 128.306 50.3638 128.306 50.1313ZM142.179 48.0554L139.265 51.9531V54.2453H136.664V51.9531L133.68 48.0554H136.562L137.965 50.1583L139.368 48.0554H142.179Z" fill="#FCFCFC"/>
</g>
<defs>
<clipPath id="clip0_2403_13108">
<rect width="134" height="42" fill="white" transform="translate(13.1211 13.0449)"/>
</clipPath>
</defs>
</svg>

<svg width="160" height="68" viewBox="0 0 160 68" fill="none" xmlns="http://www.w3.org/2000/svg"><g clip-path="url(#a)" fill="#FCFCFC"><path d="M82.361 23.593c1.63.189 3.19.562 4.522 1.08l2.337-4.102c-2.655-1.379-5.893-2.163-9.174-2.163-3.216 0-6.508.79-9.109 2.136l2.31 4.114a18.897 18.897 0 0 1 4.403-1.055v14.851h4.722V23.593h-.01Zm-31.849 7.443c.923 1.67 2.682 2.795 4.695 2.795a5.51 5.51 0 0 0 3.48-1.281l3.6 3.622c-1.894 1.708-4.43 2.725-6.977 2.725-5.736 0-10.388-4.677-10.388-10.407s4.657-10.418 10.393-10.418c2.601 0 5.213 1.017 7.107 2.806l-3.67 3.525a5.483 5.483 0 0 0-3.545-1.308 5.344 5.344 0 0 0-4.894 3.222l6.907-.011v4.73h-6.708Zm-18.244-5.952v13.401h4.721V23.857l-.064-.109c-.238-2.924-2.186-5.211-4.576-5.211-1.614 0-3.135 1.07-3.95 2.779-.826-1.698-2.348-2.78-3.961-2.78-2.385 0-4.36 2.288-4.603 5.32l-.011 14.63h4.722l-.027-13.402c0-.681.388-1.2.825-1.163.427.038.826.644.842 1.298v13.266h4.404l.01-13.266c.011-.654.4-1.254.842-1.298.426-.037.826.482.826 1.163Zm99.389-7.008c5.639 0 10.242 4.676 10.242 10.423 0 5.73-4.603 10.407-10.242 10.407-5.656 0-10.259-4.676-10.259-10.407.006-5.747 4.603-10.423 10.259-10.423Zm0 5.022a5.392 5.392 0 0 0-5.386 5.396 5.38 5.38 0 0 0 5.386 5.373 5.369 5.369 0 0 0 5.364-5.373c0-2.979-2.402-5.396-5.364-5.396ZM98.75 18.564h8.084c3.745.081 6.723 2.995 6.723 6.455 0 2.698-1.829 5.093-4.452 6.039l5.44 7.428h-5.882l-4.911-6.682v6.682H98.75V18.565Zm7.922 4.942h-2.92l-.01 3.86h2.935c1.042-.011 1.921-.882 1.921-1.936-.005-1.054-.89-1.924-1.926-1.924Z"/><path d="M28.34 13.428c8.19 0 14.872 6.692 14.872 14.899 0 8.206-6.681 14.9-14.873 14.9-8.186 0-14.866-6.694-14.866-14.9 0-8.201 6.68-14.9 14.866-14.9Zm0 1.06c-7.604 0-13.804 6.227-13.804 13.839 0 7.617 6.2 13.84 13.803 13.84 7.614 0 13.815-6.228 13.815-13.84.005-7.617-6.195-13.84-13.815-13.84Z"/><path d="M54.376 13.428c8.186 0 14.866 6.698 14.866 14.899 0 8.206-6.68 14.9-14.872 14.9-8.191 0-14.872-6.694-14.872-14.9.005-8.201 6.686-14.9 14.878-14.9Zm0 1.06c-7.604 0-13.804 6.227-13.804 13.839 0 7.617 6.2 13.84 13.803 13.84 7.615 0 13.815-6.228 13.815-13.84 0-7.617-6.2-13.84-13.814-13.84Z"/><path d="M80.16 13.428c8.191 0 14.872 6.692 14.872 14.899 0 8.206-6.681 14.9-14.873 14.9-8.191 0-14.872-6.694-14.872-14.9.006-8.201 6.686-14.9 14.872-14.9Zm0 1.06c-7.604 0-13.804 6.227-13.804 13.839 0 7.617 6.2 13.84 13.803 13.84 7.615 0 13.815-6.228 13.815-13.84.005-7.617-6.195-13.84-13.815-13.84Z"/><path d="M105.868 13.428c8.192 0 14.872 6.692 14.872 14.899 0 8.206-6.68 14.9-14.872 14.9-8.191 0-14.872-6.694-14.872-14.9.005-8.201 6.686-14.9 14.872-14.9Zm0 1.06c-7.603 0-13.803 6.227-13.803 13.839 0 7.617 6.2 13.84 13.803 13.84 7.614 0 13.815-6.228 13.815-13.84.005-7.617-6.195-13.84-13.815-13.84Z"/><path d="M131.737 13.428c8.192 0 14.872 6.692 14.872 14.899 0 8.206-6.68 14.9-14.872 14.9-8.191 0-14.872-6.694-14.872-14.9.006-8.201 6.686-14.9 14.872-14.9Zm0 1.06c-7.603 0-13.803 6.227-13.803 13.839 0 7.617 6.2 13.84 13.803 13.84 7.614 0 13.815-6.228 13.815-13.84.005-7.617-6.195-13.84-13.815-13.84ZM28.054 51.84c0 .8-.394 1.432-1.182 1.908-.74.449-1.662.67-2.758.67-1.252 0-2.255-.302-3.005-.913s-1.123-1.395-1.123-2.363c0-.984.378-1.773 1.128-2.362.756-.59 1.77-.887 3.054-.887 1.096 0 1.98.211 2.645.638.663.427 1.068 1.049 1.208 1.865h-2.504c-.08-.319-.205-.546-.377-.686-.205-.173-.518-.265-.934-.265-.572 0-.993.184-1.268.551-.221.303-.334.687-.334 1.157 0 .465.113.849.334 1.146.28.379.707.568 1.268.568.394 0 .707-.092.934-.281.232-.19.372-.438.431-.746h2.483Zm11.143 2.405h-2.59l-.302-.816h-2.59l-.314.816h-2.547l2.85-6.19h2.638l2.855 6.19Zm-3.356-2.113-.826-2.147-.82 2.147h1.646Zm13.469.178c0 .703-.389 1.243-1.166 1.622-.67.324-1.49.48-2.471.48-1.015 0-1.819-.156-2.402-.464-.647-.34-1.057-.881-1.236-1.622h2.558a.71.71 0 0 0 .405.465c.205.097.464.146.783.146.35 0 .599-.038.755-.119.156-.081.232-.19.232-.324 0-.222-.394-.411-1.176-.568-1.134-.232-1.867-.416-2.202-.551-.793-.33-1.193-.811-1.193-1.444 0-.675.362-1.194 1.09-1.562.632-.319 1.414-.476 2.359-.476.928 0 1.678.146 2.255.444.653.335 1.036.832 1.155 1.502h-2.471a.517.517 0 0 0-.357-.427 2.065 2.065 0 0 0-.755-.124c-.216 0-.373.022-.48.06-.178.07-.265.189-.265.367 0 .146.103.26.302.34.124.05.313.093.556.13l1.549.314c.648.146 1.155.357 1.522.627.437.314.653.708.653 1.184Zm11.289 1.935h-2.612V51.85h-2.401v2.395h-2.602v-6.19h2.602v2.103h2.4v-2.103H60.6v6.19Zm19.615 0h-2.779l-.68-.535c-.847.47-1.808.703-2.892.703-.777 0-1.414-.162-1.905-.481-.518-.335-.777-.795-.777-1.384 0-.779.582-1.406 1.748-1.865-.491-.384-.734-.784-.734-1.206 0-.519.28-.924.847-1.216.492-.254 1.096-.384 1.814-.384.771 0 1.424.14 1.958.416.61.32.912.763.912 1.325 0 .66-.448 1.19-1.338 1.578l.675.563c.215-.13.41-.314.577-.552h2.126a5.835 5.835 0 0 1-1.42 1.573l1.868 1.465Zm-4.398-4.703c0-.162-.086-.297-.248-.405a1.05 1.05 0 0 0-.583-.163.975.975 0 0 0-.529.136c-.145.091-.216.21-.216.362 0 .27.232.519.691.746.588-.179.885-.406.885-.676Zm-.367 3.141-1.165-.935c-.556.216-.837.476-.837.789 0 .151.081.276.243.368.162.091.35.135.556.135.442 0 .842-.12 1.203-.357Zm22.54-.843c0 .8-.394 1.432-1.176 1.908-.74.449-1.662.67-2.758.67-1.252 0-2.255-.302-3.005-.913s-1.123-1.395-1.123-2.363c0-.984.378-1.773 1.128-2.362.756-.59 1.77-.887 3.054-.887 1.096 0 1.98.211 2.645.638.663.427 1.068 1.049 1.208 1.865h-2.504c-.08-.319-.205-.546-.377-.686-.205-.173-.518-.265-.934-.265-.572 0-.993.184-1.268.551-.221.303-.335.687-.335 1.157 0 .465.114.849.335 1.146.28.379.707.568 1.268.568.394 0 .707-.092.934-.281.232-.19.372-.438.431-.746h2.477Zm11.144 2.405h-2.591l-.302-.816h-2.59l-.313.816h-2.547l2.849-6.19h2.639l2.855 6.19Zm-3.357-2.113-.825-2.147-.826 2.147h1.651Zm14.144 2.113h-2.612a2.353 2.353 0 0 1-.119-.34 1.204 1.204 0 0 1-.038-.308v-.622c0-.308-.08-.525-.248-.66-.167-.135-.453-.2-.863-.2h-1.112v2.125h-2.547v-6.185h3.869c.869 0 1.538.065 2.013.195.734.2 1.171.562 1.311 1.087.017.07.027.156.038.26.011.102.016.194.016.264 0 .119-.005.227-.021.324a.527.527 0 0 0-.033.12c-.059.243-.205.459-.442.643a2.86 2.86 0 0 1-.815.421c.453.07.793.227 1.025.481.205.233.313.525.313.882l.022.875c.016.152.032.25.048.292.017.044.081.076.195.108v.238Zm-2.704-4.114c0-.335-.226-.53-.68-.573h-1.613v1.163h1.203c.313 0 .556-.033.734-.103.243-.092.356-.254.356-.487Zm13.793 4.114h-2.612a2.34 2.34 0 0 1-.118-.34 1.204 1.204 0 0 1-.038-.308v-.622c0-.308-.081-.525-.248-.66-.168-.135-.454-.2-.864-.2h-1.111v2.125h-2.548v-6.185h3.87c.868 0 1.538.065 2.012.195.734.2 1.171.562 1.312 1.087.016.07.027.156.037.26.011.102.017.194.017.264 0 .119-.006.227-.022.324a.476.476 0 0 0-.032.12 1.16 1.16 0 0 1-.443.643 2.86 2.86 0 0 1-.815.421c.454.07.794.227 1.026.481.205.233.313.525.313.882l.021.875c.016.152.033.25.049.292.016.044.081.076.194.108v.238Zm-2.703-4.114c0-.335-.227-.53-.68-.573h-1.614v1.163h1.203c.313 0 .556-.033.734-.103.238-.092.357-.254.357-.487Zm13.873-2.076-2.914 3.898v2.292h-2.601v-2.292l-2.984-3.898h2.882l1.403 2.103 1.403-2.103h2.811Z"/></g><defs><clipPath id="a"><path fill="#fff" d="M13.121 13.045h134v42h-134z"/></clipPath></defs></svg>
